X:75
T:I Am the Man for Bewitching Them
T:I'm the Boy for Bewitching Them
R:slip jig
S:Brid Harper on Youtube
Z:hn-slipjig-75
M:9/8
L:1/8
K:G
~G3 Gge dBG | ABA ABd e2g | ~G3 gfe dBG |1 ABc BAB E2D :|2 ABc BAB E2d ||
gdg gag fed | efe efg a2b | gdg gag fed | gfe dcB AB/c/d |
gdg gag fed | efe efg aga | bg/a/b af/g/a gfe | def gdB A2B ||
P:variations
GAG gbe dBG | ABA ABd e2g | GAG gfe dBG | ABc BAB E2D |
DGG Gge dBG | ABA ABd e2g | GAG gfe dBG | ABc BAB E2d ||
gdg gag fed | efe efg a2b | gdg gag fed | gfe dcB A2d |
gdg gag fed | efe efg aga | bgb afa gfe | def gdB A2B ||
P:more variations
|: G2D Gge dBG | ABA ABd e2g | GBd gfe dBG |1 ABc BAB E2D :|2 ABc BAB E2d ||
~g3 gag fed | e3 efg a2b | gdg gag fed | gfe dcB AB/c/d |
gdg gag fed | ~e3 efg aga | b2b af/g/a g2e | def gdB A2B ||

